X:19
T: Das Maedchen und der Faehnrich
N: Q0127
O: Mitteleuropa, Deutschland (DDR) , Brandenburg, Gramzow
R: Ballade, verbotene Liebe, Flucht
M: 4/4
L: 1/8
K: E
=D2 | B3AB2=cB | A3=GA2
BA | =G2G2GAB2 | A3=GF2
EF | =GAGFE2FG | ABA=GF2
=D2 | B2B2A=GFE | F4E2

@@@ Tune index: 1517
